X:138
T:Any Thing THO1.138
M:6/8
L:1/8
Z:vmp. Peter Dunk 2012.from a transcription by Fynn Titford-Mock 2006
B:Thompson's Compleat Collection of 200 Favourite Country Dances Vol.I,1758
Q:3/8=110
K:F
A2 F c2 F|A2 F cBA|B2 G d2 B|D2 G dcB|\
A2 F c2 F|A2 F f2 g|agf cfe|f3F3:|
|:fga agf|efg gfe|def fed|edc cBA|\
Bcd dcB|ABc f2 B|AGF CFE| F3f3:|

